packages/ffe-icons/icons/open/300/lg/free_breakfast.svg

<svg xmlns="http://www.w3.org/2000/svg" height="40" viewBox="0 -960 960 960" width="40"><path d="M205.129-140.001q-10.679 0-17.903-7.263-7.225-7.263-7.225-18 0-10.736 7.225-17.864 7.224-7.128 17.903-7.128h549.742q10.679 0 17.903 7.263 7.225 7.263 7.225 17.999 0 10.737-7.225 17.865-7.224 7.128-17.903 7.128H205.129Zm113.102-145.641q-57.711 0-97.97-39.538-40.26-39.538-40.26-96.358v-347.436q0-21.089 14.968-36.057 14.968-14.968 36.057-14.968h564.87q26.443 0 45.273 18.43 18.83 18.429 18.83 44.519v124.101q0 26.09-18.83 44.519t-45.273 18.429H708.05v148.463q0 56.82-40.259 96.358-40.259 39.538-97.97 39.538h-251.59Zm0-50.255H569.82q35.599 0 61.787-25.669 26.188-25.668 26.188-60.126v-348.052H230.256v348.195q0 34.472 26.394 60.062 26.393 25.59 61.581 25.59ZM708.05-620.256h87.846q5.77 0 9.809-3.654t4.039-9.039V-757.05q0-5.385-4.039-9.04-4.039-3.654-9.809-3.654H708.05v149.488ZM318.231-335.897h-87.975 427.539H318.231Z"/></svg>

<svg xmlns="http://www.w3.org/2000/svg" viewBox="0 -960 960 960" width="32" height="32"><path d="M205.13-140q-10.68 0-17.9-7.26-7.23-7.27-7.23-18 0-10.74 7.23-17.87 7.22-7.13 17.9-7.13h549.74q10.68 0 17.9 7.27 7.23 7.26 7.23 18 0 10.73-7.23 17.86-7.22 7.13-17.9 7.13H205.13Zm113.1-145.64q-57.71 0-97.97-39.54T180-421.54v-347.43q0-21.09 14.97-36.06Q209.94-820 231.03-820H795.9q26.44 0 45.27 18.43Q860-783.14 860-757.05v124.1q0 26.09-18.83 44.52Q822.34-570 795.9-570h-87.85v148.46q0 56.82-40.26 96.36t-97.97 39.54H318.23Zm0-50.26h251.59q35.6 0 61.79-25.67 26.19-25.66 26.19-60.12v-348.05H230.26v348.19q0 34.47 26.39 60.06 26.39 25.59 61.58 25.59Zm389.82-284.36h87.85q5.77 0 9.8-3.65 4.04-3.65 4.04-9.04v-124.1q0-5.39-4.04-9.04-4.03-3.65-9.8-3.65h-87.85v149.48ZM318.23-335.9h-87.97H657.8 318.23Z"/></svg>
